X:30
T:Macpherson's Rant
M:C|
L:1/8
K:GMix
A/B/|c>cce       d/d/d de|cdBc        AGAB|c>cce d/d/d de|cc d/c/B/A/ G2G:|
a   |gc a/g/f/e/ fdde    |gc e/f/g/e/ A2Aa|gcTge fdde    |cc d/c/B/A/ G2G:|

% @@@@@@@@@@@@@@@@@@@@@@@@@@@@@@@@@@

%% 31. ===============================================================================

% +&S&tuarts &R&ant.+
%
% *FIRST Couple sett, and cast off.  Sett again, the Man cast down, the Woman up.
% *The Woman fall in 'twixt the 2d Couple, the Man 'twixt the 3d Couple, and sett
% 3 hands abreast: the first Man goes 3 hands round with the 3d Couple, the Woman
% the same with the 2d Couple at the same time. First Man reel with 3d Couple, and
% the Woman with the 2d at the same time.  *SETT across, and turn your own partner
% half round proper the last time.  *Four hands round wt 2d Couple.  Right and Left.

% @@@@@@@@@@@@@@@@@@@@@@@@@@@@@@@@@@

